!! 00000] TT[WS
!!!OTL: Sangugu chuoshui
!!!ARE: Asia, China, Shanxi Fenyang
!! Ethnic Group: Han
!! WII, 259 (1)
!!!SCT: J0786
!!!YEM: Copyright 1995, estate of Helmut Schaffrath.
**kern
*ICvox
*Ivox
*M2/4
*k[]
*C:
{8.cc
16a
8dd
16dd
16cc
=1
8a
16cc
16a
4g
=2
8a
16a
16g
8e
16g
16e
=3
2d
=4
8g
16g
16g
8g
8c
=5
2d}
=6
{8g
8a
8g
8e
=7
8e
16e
16d
8c
8A
=8
8g
16e
16d
8c
8A
=9
2G
=10
8e
8g
16d
16c
8A
=11
2G}
=12
{8.e
16d
4e
=13
8.g
16a
4e
=14
8.g
16a
8e
8d
=15
8.c
16A
4G}
=16
{8.cc
16a
4g
=17
16e
16g
16a
16cc
4g
=18
8d
4g
16e
16d
=19
4.c
8d
=20
4.g
16e
16d
=21
2c}
==
!!!AGN: Xiaodiao. XÅshi, Xinminge
!!!ONB: ESAC (Essen Associative Code) Database: CHINA
!!!AMT: simple duple
!!!AIN: vox
!!!EED: Helmut Schaffrath
!!!EEV: 1.0
*-
